src/apps/scalable/gpt.svg

<?xml version="1.0" encoding="UTF-8" standalone="no"?>
<svg
   t="1715683017121"
   class="icon"
   viewBox="0 0 1024 1024"
   version="1.1"
   p-id="9385"
   width="64"
   height="64"
   id="svg2"
   sodipodi:docname="chatgpt.svg"
   inkscape:version="1.3.2 (091e20e, 2023-11-25)"
   xmlns:inkscape="http://www.inkscape.org/namespaces/inkscape"
   xmlns:sodipodi="http://sodipodi.sourceforge.net/DTD/sodipodi-0.dtd"
   xmlns="http://www.w3.org/2000/svg"
   xmlns:svg="http://www.w3.org/2000/svg">
  <defs
     id="defs2" />
  <sodipodi:namedview
     id="namedview2"
     pagecolor="#ffffff"
     bordercolor="#666666"
     borderopacity="1.0"
     inkscape:showpageshadow="2"
     inkscape:pageopacity="0.0"
     inkscape:pagecheckerboard="0"
     inkscape:deskcolor="#d1d1d1"
     inkscape:zoom="7.8096753"
     inkscape:cx="31.563412"
     inkscape:cy="45.200343"
     inkscape:window-width="1920"
     inkscape:window-height="1120"
     inkscape:window-x="0"
     inkscape:window-y="0"
     inkscape:window-maximized="1"
     inkscape:current-layer="svg2" />
  <g
     id="g2">
    <path
       d="M 777.664,64 H 246.336 C 145.61745,64 64,146.30982 64,247.84291 V 776.15709 C 64,877.73091 145.61745,960 246.336,960 H 777.664 C 878.38255,960 960,877.73091 960,776.15709 V 247.84291 C 960,146.26909 878.38255,64 777.664,64 Z"
       fill="#10a37f"
       p-id="9386"
       id="path1"
       style="stroke-width:0.875" />
    <path
       d="M 809.74269,449.74295 A 173.37198,171.05431 0 0 0 794.88536,309.39927 175.23564,172.8932 0 0 0 606.20466,226.46384 173.20219,170.88686 0 0 0 476.67029,169 h -1.52545 a 175.23564,172.8932 0 0 0 -166.70585,119.66537 173.25856,170.94251 0 0 0 -115.8068,82.93535 175.29265,172.94934 0 0 0 21.57955,202.65631 173.37198,171.05431 0 0 0 14.80067,140.34367 175.23564,172.8932 0 0 0 188.68067,82.9355 173.25856,170.94251 0 0 0 129.5914,57.46379 h 1.5251 A 175.12291,172.78191 0 0 0 715.51511,735.22302 173.25856,170.94251 0 0 0 831.32252,652.34365 175.01017,172.67061 0 0 0 809.74269,449.74295 Z m -261.3287,360.4454 h -0.16916 c -30.4489,0 -59.88113,-10.59016 -83.26834,-29.76316 a 84.73689,83.604146 0 0 0 4.12365,-2.3412 L 607.50393,699.21778 A 22.483542,22.182988 0 0 0 618.9154,679.87734 V 487.19753 l 58.52489,33.33015 a 2.0901796,2.0622387 0 0 1 1.12952,1.56065 V 681.60496 A 130.49473,128.75028 0 0 1 548.41399,810.18835 Z M 268.44351,692.19486 a 130.04309,128.3046 0 0 1 -15.53542,-86.16788 l 4.12385,2.45204 138.40377,78.8667 a 22.596489,22.294432 0 0 0 22.76609,0 l 169.02184,-96.25619 v 66.77177 a 2.0901796,2.0622387 0 0 1 -0.84761,1.67195 L 446.44749,739.23619 A 130.5511,128.80593 0 0 1 268.44351,692.13896 Z M 232.06329,394.00682 c 15.19594,-26.08463 39.20493,-46.03797 67.78954,-56.34938 l -0.0543,4.7376 v 157.84468 c 0,7.9702 4.34954,15.32727 11.3546,19.2848 l 169.02182,96.31206 -58.52486,33.27422 a 2.0901796,2.0622387 0 0 1 -1.97711,0.22281 L 279.68538,569.51969 A 130.49473,128.75028 0 0 1 232.06329,393.95117 Z M 712.8038,504.36419 543.78199,408.10777 602.30685,374.77768 a 2.0901796,2.0622387 0 0 1 1.92071,-0.2231 l 139.98548,79.7585 A 130.382,128.63899 0 0 1 724.10199,686.34255 V 523.59332 A 22.483542,22.182988 0 0 0 712.8038,504.41984 Z m 58.18596,-86.44685 a 207.60532,204.83015 0 0 0 -4.06758,-2.45225 L 628.51871,336.59863 a 22.596489,22.294432 0 0 0 -22.82244,0 l -168.96516,96.25592 v -66.7715 c 0,-0.61313 0.28221,-1.2819 0.84698,-1.67245 L 577.50727,284.76375 A 130.32563,128.58334 0 0 1 770.98976,417.91734 Z M 404.92653,536.74682 346.40117,503.41667 a 2.0901796,2.0622387 0 0 1 -1.12961,-1.6163 V 342.3394 a 130.32563,128.58334 0 0 1 213.70639,-98.76454 117.89732,116.32122 0 0 0 -4.12399,2.34122 l -138.46014,78.86611 a 22.540014,22.23871 0 0 0 -11.35452,19.34045 v 0.1125 z m 31.80458,-67.66349 75.24629,-42.91706 75.30261,42.91706 v 85.77765 l -75.30261,42.86094 -75.30329,-42.86094 v -85.77765 z"
       fill="#ffffff"
       p-id="9387"
       id="path2"
       style="stroke-width:1.20547" />
  </g>
</svg>

<svg xmlns="http://www.w3.org/2000/svg" width="64" height="64" class="icon" viewBox="0 0 1024 1024"><path fill="#10a37f" d="M777.664 64H246.336C145.617 64 64 146.31 64 247.843v528.314C64 877.731 145.617 960 246.336 960h531.328C878.383 960 960 877.73 960 776.157V247.843C960 146.269 878.383 64 777.664 64" style="stroke-width:.875"/><path fill="#fff" d="M809.743 449.743a173.372 171.054 0 0 0-14.858-140.344 175.236 172.893 0 0 0-188.68-82.935A173.202 170.887 0 0 0 476.67 169h-1.525a175.236 172.893 0 0 0-166.706 119.665 173.259 170.943 0 0 0-115.807 82.936 175.293 172.95 0 0 0 21.58 202.656 173.372 171.054 0 0 0 14.8 140.344 175.236 172.893 0 0 0 188.681 82.935A173.259 170.943 0 0 0 547.284 855h1.526a175.123 172.782 0 0 0 166.705-119.777 173.259 170.943 0 0 0 115.808-82.88 175.01 172.67 0 0 0-21.58-202.6M548.414 810.188h-.17a131.4 131.4 0 0 1-83.268-29.763 84.737 83.604 0 0 0 4.124-2.341l138.404-78.866a22.484 22.183 0 0 0 11.411-19.34v-192.68l58.525 33.33a2.09 2.062 0 0 1 1.13 1.56v159.517a130.495 128.75 0 0 1-130.156 128.583m-279.97-117.993a130.043 128.305 0 0 1-15.536-86.168l4.124 2.452 138.404 78.867a22.596 22.294 0 0 0 22.766 0l169.022-96.256v66.771a2.09 2.062 0 0 1-.848 1.672l-139.929 79.703a130.551 128.806 0 0 1-178.003-47.097Zm-36.38-298.188c15.195-26.085 39.204-46.038 67.789-56.35l-.054 4.738V500.24c0 7.97 4.35 15.327 11.354 19.285l169.022 96.312-58.525 33.274a2.09 2.062 0 0 1-1.977.223L279.685 569.52a130.495 128.75 0 0 1-47.622-175.569Zm480.74 110.357-169.022-96.256 58.525-33.33a2.09 2.062 0 0 1 1.92-.223l139.986 79.758a130.382 128.639 0 0 1-20.111 232.03v-162.75a22.484 22.183 0 0 0-11.298-19.173Zm58.186-86.447a207.605 204.83 0 0 0-4.068-2.452L628.52 336.6a22.596 22.294 0 0 0-22.823 0l-168.965 96.256v-66.772c0-.613.282-1.282.847-1.672l139.93-79.647A130.326 128.583 0 0 1 770.99 417.917m-366.063 118.83-58.526-33.33a2.09 2.062 0 0 1-1.13-1.617V342.34a130.326 128.583 0 0 1 213.707-98.765 117.897 116.321 0 0 0-4.124 2.341l-138.46 78.866a22.54 22.239 0 0 0-11.355 19.34v.113zm31.804-67.664 75.246-42.917 75.303 42.917v85.778l-75.303 42.86-75.303-42.86v-85.778z" style="stroke-width:1.20547"/></svg>
